!! 00000] TT[00
!! NN
!!!OTL: Song qing lang
!!!ARE: Asia, China,ˇbei Liaoning, Haicheng
!! Ethnic Group: Han
!! III, 272, 2)
!!!SCT: C0295
!!!YEM: Copyright 1995, estate of Helmut Schaffrath.
**kern
*ICvox
*Ivox
*M2/4
*k[b-]
*F:
{8f
8f
16f
16d
16c
16d
=1
2f
=2
8cc
16dd
16ff
16dd
16cc
8a
=3
2g}
=4
{8cc
16g
16a
8cc
16cc
16a
=5
8.g
16c
4a
=6
16g
16a
16g
16f
16d
16c
16f
16d
=7
2c}
=8
{16d
16f
16c
16d
8f
16f
16g
=9
8a
16g
16a
8.cc
16a
=10
8g
4a
8c
=11
8d
16g
16e
4d}
=12
{16a
16cc
16dd
16a
8cc
16cc
16a
=13
16a
16cc
16dd
16a
8cc
16cc
16a
=14
16g
16a
16g
16f
16d
16c
16f
16d
=15
2c}
==
!!!AGN: Xiaodiao, Shidiao, MengjiangnÅ diao. NannÅ liqing
!! Diese Variante ist im Norden haeufiger. Die Mengjiangnu ist
!!    insbesondere durch die 6te Stufe beim dritten Phrasenende
!!    charakterisiert: 2, 1) - 5 - 6 - 5, oder Re-So-La-So).
!!    Andere Weisen enthalten gewoehnlich nur 2-5-5
!!!ONB: ESAC (Essen Associative Code) Database: CHINA
!!!AMT: simple duple
!!!AIN: vox
!!!EED: Helmut Schaffrath
!!!EEV: 1.0
*-
